wp-content/plugins/wp-mail-smtp/assets/images/icons/close.svg

<svg width="16" height="16" viewBox="0 0 16 16" fill="none" xmlns="http://www.w3.org/2000/svg">
<path opacity="0.5" d="M8 0.25C3.71875 0.25 0.25 3.71875 0.25 8C0.25 12.2812 3.71875 15.75 8 15.75C12.2812 15.75 15.75 12.2812 15.75 8C15.75 3.71875 12.2812 0.25 8 0.25ZM8 14.25C4.53125 14.25 1.75 11.4688 1.75 8C1.75 4.5625 4.53125 1.75 8 1.75C11.4375 1.75 14.25 4.5625 14.25 8C14.25 11.4688 11.4375 14.25 8 14.25ZM11.1562 6.0625C11.3125 5.9375 11.3125 5.6875 11.1562 5.53125L10.4688 4.84375C10.3125 4.6875 10.0625 4.6875 9.9375 4.84375L8 6.78125L6.03125 4.84375C5.90625 4.6875 5.65625 4.6875 5.5 4.84375L4.8125 5.53125C4.65625 5.6875 4.65625 5.9375 4.8125 6.0625L6.75 8L4.8125 9.96875C4.65625 10.0938 4.65625 10.3438 4.8125 10.5L5.5 11.1875C5.65625 11.3438 5.90625 11.3438 6.03125 11.1875L8 9.25L9.9375 11.1875C10.0625 11.3438 10.3125 11.3438 10.4688 11.1875L11.1562 10.5C11.3125 10.3438 11.3125 10.0938 11.1562 9.96875L9.21875 8L11.1562 6.0625Z" fill="#6F6F84"/>
</svg>

<svg width="16" height="16" fill="none" xmlns="http://www.w3.org/2000/svg"><path opacity=".5" d="M8 .25A7.749 7.749 0 0 0 .25 8 7.749 7.749 0 0 0 8 15.75 7.749 7.749 0 0 0 15.75 8 7.749 7.749 0 0 0 8 .25Zm0 14A6.228 6.228 0 0 1 1.75 8 6.248 6.248 0 0 1 8 1.75c3.438 0 6.25 2.813 6.25 6.25A6.248 6.248 0 0 1 8 14.25Zm3.156-8.188c.156-.125.156-.375 0-.53l-.687-.688c-.156-.157-.406-.157-.531 0L8 6.78 6.031 4.844c-.125-.157-.375-.157-.531 0l-.688.687c-.156.157-.156.407 0 .532L6.75 8 4.812 9.969c-.156.125-.156.375 0 .531l.688.688c.156.156.406.156.531 0L8 9.25l1.938 1.938c.124.156.374.156.53 0l.688-.688c.156-.156.156-.406 0-.531L9.22 8l1.937-1.938Z" fill="#6F6F84"/></svg>
